logos/swc.svg

<?xml version="1.0" encoding="UTF-8"?>
<svg width="512px" height="180px" viewBox="0 0 512 180" version="1.1" xmlns="http://www.w3.org/2000/svg" xmlns:xlink="http://www.w3.org/1999/xlink" preserveAspectRatio="xMidYMid">
    <defs>
        <linearGradient x1="-9.93457377e-06%" y1="50.0147277%" x2="100.005309%" y2="50.0147277%" id="linearGradient-1">
            <stop stop-color="#FFA588" offset="0%"></stop>
            <stop stop-color="#FCB371" offset="27.1%"></stop>
            <stop stop-color="#F4D837" offset="83.57%"></stop>
            <stop stop-color="#F1E425" offset="100%"></stop>
        </linearGradient>
    </defs>
    <g>
        <path d="M460.924179,179.246154 C447.161872,179.246154 434.190502,173.867781 424.435611,164.112889 L348.452912,88.1301909 C340.807186,80.4844648 335.797917,70.9404895 334.005126,60.5528479 C332.950544,54.4889962 333.003273,48.2669571 334.163314,42.2031054 L311.700698,42.2031054 C306.216867,42.2031054 303.896785,45.8414164 303.000389,48.0033114 C302.103994,50.1652063 301.154869,54.3835379 305.056826,58.2854947 L337.907083,91.1357521 C345.552809,98.7814782 350.562078,108.325453 352.354869,118.713095 C354.042202,128.3098 352.88216,138.222879 349.138391,147.39775 C345.341893,156.519892 339.119854,164.323806 331.157753,169.965824 C322.510173,176.029676 312.280719,179.246154 301.471244,179.246154 L300.416661,179.246154 C286.654354,179.246154 273.682984,173.867781 263.928093,164.112889 L256.65147,156.836267 C253.171347,161.950994 248.847557,166.380242 243.785559,169.913095 C235.137979,175.976947 224.908525,179.193425 214.09905,179.193425 C200.336743,179.193425 187.365374,173.815052 177.610482,164.06016 L58.4426136,44.8922918 C56.6498227,43.0995009 54.2770112,42.1503762 51.7987413,42.1503762 C46.3149102,42.1503762 43.9948278,45.7886873 43.0984324,47.9505822 C42.2020369,50.1124772 41.2529123,54.3308088 45.154869,58.2327655 L78.0051265,91.083023 C85.6508526,98.7287491 90.6601213,108.272724 92.4529123,118.660366 C94.1402449,128.25707 92.9802037,138.17015 89.2364344,147.345021 C85.439936,156.467163 79.2178968,164.271077 71.2557959,169.913095 C62.6082161,175.976947 52.3787619,179.193425 41.5692872,179.193425 L26.5414808,179.193425 C14.8883397,179.193425 5.44982269,169.754908 5.44982269,158.101767 C5.44982269,146.448625 14.8883397,137.010108 26.5414808,137.010108 L41.3583706,137.010108 C46.8422017,137.010108 49.1622841,133.371797 50.0586795,131.209903 C50.955075,129.048008 51.9041996,124.829676 48.0022429,120.927719 L15.2047146,88.1301909 C7.55898849,80.4844648 2.5497197,70.9404895 0.756928763,60.5528479 C-0.930403884,50.9561435 0.229637311,41.0430642 3.97340662,31.8681929 C7.76990508,22.7460508 13.9919442,14.9421373 21.9540451,9.30011878 C30.601625,3.23626708 40.8838083,0.0197892228 51.693283,0.0197892228 C65.4555899,0.0197892228 78.4269597,5.39816203 88.1818515,15.1530539 L207.34972,134.320922 C209.142511,136.113713 211.515322,137.062838 213.993592,137.062838 C219.477423,137.062838 221.797505,133.424527 222.693901,131.262632 C223.590296,129.100737 224.539421,124.882405 220.690193,121.033177 L135.690811,36.0337954 C127.465065,27.8080487 127.465065,14.467575 135.690811,6.18909921 C143.916558,-2.08937659 157.257032,-2.03664744 165.535508,6.18909921 L250.48216,91.1357521 C250.53489,91.1884813 250.53489,91.1884813 250.587619,91.2412104 L293.66733,134.320922 C295.460121,136.113713 297.832933,137.062838 300.311203,137.062838 L301.365786,137.062838 C306.849617,137.062838 309.169699,133.424527 310.066095,131.262632 C310.96249,129.100737 311.911615,124.882405 308.009658,120.980448 L275.21213,88.1301909 C267.566404,80.4844648 262.557135,70.9404895 260.764344,60.5528479 C259.077011,50.9561435 260.237052,41.0430642 263.980822,31.8681929 C267.77732,22.7460508 273.999359,14.9421373 281.96146,9.30011878 C290.60904,3.23626708 300.891223,0.0197892228 311.700698,0.0197892228 L397.596476,0.0197892228 C409.249617,0.0197892228 418.688134,9.45830622 418.688134,21.1114473 C418.688134,32.7645884 409.249617,42.2031054 397.596476,42.2031054 L384.941481,42.2031054 C379.45765,42.2031054 377.137567,45.8414164 376.241172,48.0033114 C375.344776,50.1652063 374.395652,54.3835379 378.297608,58.2854947 L454.280307,134.268193 C456.073098,136.060984 458.445909,137.010108 460.924179,137.010108 C465.722531,137.010108 469.624488,133.108152 469.624488,128.3098 C469.624488,116.656658 479.063005,107.218141 490.716146,107.218141 C502.369287,107.218141 511.807895,116.656658 511.807895,128.3098 C511.860533,156.414434 488.976084,179.246154 460.924179,179.246154 L460.924179,179.246154 Z" fill="url(#linearGradient-1)"></path>
        <path d="M460.924179,160.790953 C452.065683,160.790953 443.734478,157.363559 437.459709,151.08879 L361.477011,75.106092 C351.827578,65.4566584 349.085662,51.5888932 354.305847,38.9866275 C356.995034,32.5536718 361.371553,27.3334864 366.802655,23.8006337 L311.700698,23.8006337 C300.205744,23.8006337 290.345394,30.3917769 285.916146,40.9903351 C281.486898,51.5888932 283.859709,63.2420343 291.979998,71.3623227 L324.830255,104.21258 C334.479689,113.862014 337.221604,127.729779 332.001419,140.332045 C326.781234,152.93431 315.022634,160.790953 301.365786,160.790953 L300.311203,160.790953 C291.452706,160.790953 283.121501,157.363559 276.846733,151.08879 L246.527475,120.769532 C247.898432,127.149758 247.265683,133.899089 244.629225,140.332045 C239.40904,152.93431 227.650441,160.790953 213.993592,160.790953 C205.135096,160.790953 196.803891,157.363559 190.529122,151.08879 L71.3612542,31.9209221 C66.0883397,26.6480076 59.0753634,23.7479046 51.6405539,23.7479046 C40.1456002,23.7479046 30.2852501,30.3390477 25.8560019,40.9376059 C21.4794828,51.5361641 23.7995652,63.1893052 31.9198536,71.3095935 L64.770111,104.159851 C74.4195446,113.809285 77.1614602,127.67705 71.9412748,140.279315 C66.7210894,152.881581 54.96249,160.738224 41.3056414,160.738224 L26.5414808,160.738224 C25.0650647,160.738224 23.9050235,159.578183 23.9050235,158.101767 C23.9050235,156.62535 25.0650647,155.465309 26.5414808,155.465309 L41.3583706,155.465309 C52.8533242,155.465309 62.7136744,148.874166 67.1429226,138.275608 C71.5721708,127.67705 69.1993592,116.023909 61.0790709,107.90362 L28.2288134,75.0533629 C18.5793798,65.4566584 15.8374643,51.5888932 21.0576497,38.9866275 C26.277835,26.3316327 37.9837053,18.47499 51.693283,18.47499 C60.5517794,18.47499 68.8829844,21.9023845 75.1577527,28.1771528 L194.325621,147.345021 C199.598535,152.617935 206.611512,155.518038 214.046321,155.518038 C225.541275,155.518038 235.401625,148.926895 239.830873,138.328337 C244.207392,127.729779 241.940039,116.129367 233.819751,108.009079 L148.767639,23.0096965 C147.713056,21.9551136 147.713056,20.3205101 148.767639,19.2659272 C149.822222,18.2113443 151.456826,18.2113443 152.511409,19.2659272 L237.458062,104.21258 C237.458062,104.21258 237.510791,104.265309 237.510791,104.265309 L280.590502,147.345021 C285.863417,152.617935 292.876393,155.518038 300.311203,155.518038 L301.365786,155.518038 C312.860739,155.518038 322.721089,148.926895 327.150338,138.328337 C331.526857,127.729779 329.206774,116.076638 321.086486,107.956349 L288.236228,75.106092 C278.586795,65.4566584 275.844879,51.5888932 281.065065,38.9866275 C286.28525,26.3843618 298.043849,18.5277192 311.700698,18.5277192 L397.596476,18.5277192 C399.072892,18.5277192 400.232933,19.6877604 400.232933,21.1641765 C400.232933,22.6405925 399.072892,23.8006337 397.596476,23.8006337 L384.941481,23.8006337 C373.446527,23.8006337 363.586177,30.3917769 359.156929,40.9903351 C354.78041,51.5888932 357.100492,63.2420343 365.22078,71.3623227 L441.203479,147.345021 C446.476393,152.617935 453.48937,155.518038 460.924179,155.518038 C475.899256,155.518038 488.079689,143.337606 488.079689,128.362529 C488.079689,126.886113 489.23973,125.726071 490.716146,125.726071 C492.192562,125.726071 493.352746,126.886113 493.352746,128.362529 C493.405332,146.237709 478.852088,160.790953 460.924179,160.790953 L460.924179,160.790953 Z" fill="#FFFFFF"></path>
    </g>
</svg>

<svg width="512" height="180" xmlns="http://www.w3.org/2000/svg" preserveAspectRatio="xMidYMid">
	<defs>
		<linearGradient x1="0%" y1="50.015%" x2="100.005%" y2="50.015%" id="a">
			<stop stop-color="#FFA588" offset="0%"/>
			<stop stop-color="#FCB371" offset="27.1%"/>
			<stop stop-color="#F4D837" offset="83.57%"/>
			<stop stop-color="#F1E425" offset="100%"/>
		</linearGradient>
	</defs>
	<path d="M460.924 179.246c-13.762 0-26.733-5.378-36.488-15.133L348.453 88.13c-7.646-7.646-12.655-17.19-14.448-27.577a51.101 51.101 0 0 1 .158-18.35h-22.462c-5.484 0-7.804 3.638-8.7 5.8-.897 2.162-1.846 6.38 2.056 10.282l32.85 32.85c7.646 7.646 12.655 17.19 14.448 27.578 1.687 9.597.527 19.51-3.217 28.685-3.796 9.122-10.018 16.926-17.98 22.568-8.648 6.064-18.877 9.28-29.687 9.28h-1.054c-13.763 0-26.734-5.378-36.489-15.133l-7.277-7.277c-3.48 5.115-7.803 9.544-12.865 13.077-8.648 6.064-18.877 9.28-29.687 9.28-13.762 0-26.734-5.378-36.489-15.133L58.443 44.892a9.334 9.334 0 0 0-6.644-2.742c-5.484 0-7.804 3.639-8.7 5.8-.897 2.162-1.846 6.38 2.056 10.283l32.85 32.85c7.646 7.646 12.655 17.19 14.448 27.577 1.687 9.597.527 19.51-3.217 28.685-3.796 9.122-10.018 16.926-17.98 22.568-8.648 6.064-18.877 9.28-29.687 9.28H26.541c-11.653 0-21.091-9.438-21.091-21.091s9.438-21.092 21.091-21.092h14.817c5.484 0 7.804-3.638 8.7-5.8.897-2.162 1.846-6.38-2.056-10.282L15.205 88.13C7.559 80.484 2.55 70.94.757 60.553-.93 50.956.23 41.043 3.973 31.868 7.77 22.746 13.992 14.942 21.954 9.3 30.602 3.236 40.884.02 51.694.02c13.762 0 26.733 5.378 36.488 15.133L207.35 134.321a9.334 9.334 0 0 0 6.644 2.742c5.483 0 7.804-3.638 8.7-5.8.896-2.162 1.845-6.38-2.004-10.23l-85-85c-8.225-8.225-8.225-21.565 0-29.844 8.227-8.278 21.567-8.226 29.846 0l84.946 84.947.106.105 43.08 43.08a9.334 9.334 0 0 0 6.643 2.742h1.055c5.484 0 7.804-3.638 8.7-5.8.896-2.162 1.846-6.38-2.056-10.283l-32.798-32.85c-7.646-7.646-12.655-17.19-14.448-27.577-1.687-9.597-.527-19.51 3.217-28.685 3.796-9.122 10.018-16.926 17.98-22.568 8.648-6.064 18.93-9.28 29.74-9.28h85.895c11.654 0 21.092 9.438 21.092 21.091 0 11.654-9.438 21.092-21.092 21.092h-12.655c-5.483 0-7.803 3.638-8.7 5.8-.896 2.162-1.845 6.38 2.057 10.282l75.982 75.983a9.334 9.334 0 0 0 6.644 2.742c4.799 0 8.7-3.902 8.7-8.7 0-11.653 9.439-21.092 21.092-21.092 11.653 0 21.092 9.439 21.092 21.092.053 28.104-22.832 50.936-50.884 50.936Z" fill="url(#a)"/>
	<path d="M460.924 160.791c-8.858 0-17.19-3.427-23.464-9.702l-75.983-75.983c-9.65-9.65-12.391-23.517-7.171-36.12 2.689-6.432 7.066-11.653 12.497-15.185H311.7c-11.495 0-21.356 6.59-25.785 17.19-4.43 10.598-2.056 22.251 6.064 30.371l32.85 32.85c9.65 9.65 12.392 23.518 7.171 36.12-5.22 12.602-16.978 20.459-30.635 20.459h-1.055c-8.858 0-17.19-3.427-23.464-9.702l-30.32-30.32c1.371 6.38.739 13.13-1.898 19.563-5.22 12.602-16.979 20.459-30.635 20.459-8.859 0-17.19-3.427-23.465-9.702L71.361 31.92c-5.273-5.273-12.286-8.173-19.72-8.173-11.495 0-21.356 6.591-25.785 17.19C21.479 51.536 23.8 63.189 31.92 71.31l32.85 32.85c9.65 9.65 12.391 23.517 7.171 36.12-5.22 12.602-16.979 20.458-30.635 20.458H26.54a2.61 2.61 0 0 1-2.636-2.636 2.61 2.61 0 0 1 2.636-2.637h14.817c11.495 0 21.356-6.59 25.785-17.19 4.43-10.598 2.056-22.251-6.064-30.371l-32.85-32.85c-9.65-9.597-12.392-23.465-7.171-36.067 5.22-12.655 16.926-20.512 30.635-20.512 8.859 0 17.19 3.427 23.465 9.702l119.168 119.168c5.273 5.273 12.286 8.173 19.72 8.173 11.495 0 21.356-6.591 25.785-17.19 4.376-10.598 2.109-22.199-6.011-30.319l-85.052-85a2.61 2.61 0 0 1 0-3.743 2.61 2.61 0 0 1 3.743 0l84.947 84.947.053.052 43.08 43.08c5.272 5.273 12.285 8.173 19.72 8.173h1.055c11.495 0 21.355-6.591 25.784-17.19 4.377-10.598 2.057-22.251-6.064-30.372l-32.85-32.85c-9.65-9.65-12.391-23.517-7.17-36.12 5.22-12.602 16.978-20.458 30.635-20.458h85.895a2.61 2.61 0 0 1 2.637 2.636 2.61 2.61 0 0 1-2.637 2.637h-12.655c-11.494 0-21.355 6.59-25.784 17.19-4.377 10.598-2.057 22.251 6.064 30.371l75.982 75.983c5.273 5.273 12.286 8.173 19.721 8.173 14.975 0 27.156-12.18 27.156-27.155a2.61 2.61 0 0 1 2.636-2.637 2.611 2.611 0 0 1 2.637 2.637c.052 17.875-14.5 32.428-32.429 32.428Z" fill="#FFF"/>
</svg>
